images/chat.svg

<svg width="16" height="15" viewBox="0 0 16 15" fill="none" xmlns="http://www.w3.org/2000/svg">
<path d="M14.2609 0H1.73913C0.779112 0.00118076 0.00114995 0.799984 0 1.78572V9.28575C0.00114995 10.2715 0.779112 11.0703 1.73913 11.0715H3.47826V14.6429C3.47828 14.7796 3.55433 14.9044 3.6741 14.9641C3.79388 15.0238 3.93636 15.0081 4.04104 14.9236L8.816 11.0715H14.2609C15.2209 11.0703 15.9988 10.2715 16 9.28575V1.78572C15.9988 0.799984 15.2209 0.00118076 14.2609 0Z" fill="#5454D4"/>
</svg>

<svg width="16" height="15" fill="none" xmlns="http://www.w3.org/2000/svg"><path d="M14.26 0H1.74C.78.001 0 .8 0 1.786v7.5c.001.986.78 1.784 1.74 1.786h1.738v3.57c0 .138.076.262.196.322a.34.34 0 00.367-.04l4.775-3.852h5.445c.96-.002 1.738-.8 1.739-1.786v-7.5C15.999.8 15.22 0 14.26 0z" fill="#5454D4"/></svg>
